X:1
T:Title
%%score { ( 1 3 ) | 2 }
L:1/8
M:3/2
K:Ab
V:1 treble nm="Grand Piano"
V:3 treble 
V:2 bass 
V:1
 z4 z4[Q:1/4=156] [CE]4 | [Ec]6 [DB]2 [CA]2 [CE]2 | [A,DF]8 [DFB]4 | [CEA]6 [B,EG]2 [A,EA]2 [EB]2 | %4
 [Ec]8 E4 | B6 B2 c2 B2 | A2 F2 [A,CE]4 [CEA]4 | [B,EG]6 [B,=DF]2 [B,FA]2 [A,DF]2 |[M:4/4] [G,E]8 | %9
[M:2/4] [G,DE]4 |[M:6/4] [A,CE]6 [CA]2 [CA]2 [EG]2 | z6 z2 F4 | [=DF]6 [DB]2 [DB]2 [FA]2 | %13
 z6 z2 G4[K:bass] | [=EG]6 [Ec]2 [Ec]2 [CGB]2 | [CFA]2 [B,=EG]2 [A,F]2- [A,F]2 [DFB]4 | %16
 [CEA]2 [CEA]2 [DEB]2- [DEB]2 [DEG]4 |[M:4/4] [CEA]8 |] %18
V:2
 z4 z4 [A,,A,]4 | [A,,A,]6 [A,,A,]2 [A,,A,]2 [A,,A,]2 | D,8 B,,4 | E,6 D,2 C,2 [B,,G,]2 | %4
 [A,,A,]8 [E,G,]4 | [E,G,D]6 [E,G,D]2 [E,G,E]2 [E,G,D]2 | [F,A,C]2 [D,A,D]2 A,,4 A,,4 | %7
 B,,6 B,,2 B,,2 B,,2 |[M:4/4] E,8 |[M:2/4] E,4 |[M:6/4] A,,6 [A,,E,]2 [A,,E,]2 [C,A,]2 | %11
 [D,A,D]6- [D,A,D]2 [D,A,D]2 [C,=A,]2 | [B,,B,]6 [B,,F,]2 [B,,F,]2 [=D,B,]2 | %13
 [E,B,E]6- [E,B,E]2 .[E,B,E]4 | [C,C]6 [C,G,]2 [C,G,]2 =E,2 | F,2 C,2 D,2- D,2 B,,4 | %16
 E,2 E,2 E,2- E,2 E,4 |[M:4/4] A,,8 |] %18
V:3
 x12 | x12 | x12 | x12 | x12 | x12 | x12 | x12 |[M:4/4] x8 |[M:2/4] x4 |[M:6/4] x12 | %11
 F6- F2 z2 E2 | x12 | G6- G2 z2[K:bass] D,2 | x12 | x12 | x12 |[M:4/4] x8 |] %18

